X:124
T:Queen of the Rushes
Z: id:dc-jig-103
M:6/8
L:1/8
K:D Major
G|F2D DCD|G2E EDE|F2D DCD|GED CDE|!
F2D F2D|G2E EDE|FAF GEC|EDC D2:|!
B|=c2A B^cd|ecA AGE|dcd fed|ecA A2B|!
=c2A B^cd|ecA AGE|FAF GEC|EDC D2:|!
F|A3 dAF|A3 dAF|GFG EDE|=cBc EFG|!
A3 dAF|A3 dAG|FAF GEC|EDC D2:|!

